X: 10128
T: Dilyn Serch
R: reel
M: 4/4
K: Dmajor
|:F/E/|DEFG A2A2|d2AG FEFD|Ad dc/B/ cA A>c|BGG>B AFGE|
D>EFG A2A2|B2dB c>d e2|d2 fg/f/e2A2|B2TcB/c/ [1 d3:|2 d4||
|:dffd ceec|BddB B2A2|G/A/B/c/ BA/G/ F/G/A/B/ AG/F/|E>FGB AGFE|
D>EFG A2A2|B2 e>d dcBA|de fg/f/ e2A2|B2TcB/c/d4:|

